Numix-GalliumOS/64/categories/preferences-system-directory.svg

<?xml version="1.0" encoding="UTF-8" standalone="no"?>
<svg
   xmlns:dc="http://purl.org/dc/elements/1.1/"
   xmlns:cc="http://creativecommons.org/ns#"
   xmlns:rdf="http://www.w3.org/1999/02/22-rdf-syntax-ns#"
   xmlns:svg="http://www.w3.org/2000/svg"
   xmlns="http://www.w3.org/2000/svg"
   xmlns:sodipodi="http://sodipodi.sourceforge.net/DTD/sodipodi-0.dtd"
   xmlns:inkscape="http://www.inkscape.org/namespaces/inkscape"
   width="64"
   height="64"
   viewBox="0 0 64 64"
   id="svg2"
   version="1.1"
   inkscape:version="0.91 r"
   sodipodi:docname="preferences-system-directory.svg">
  <metadata
     id="metadata16">
    <rdf:RDF>
      <cc:Work
         rdf:about="">
        <dc:format>image/svg+xml</dc:format>
        <dc:type
           rdf:resource="http://purl.org/dc/dcmitype/StillImage" />
        <dc:title />
      </cc:Work>
    </rdf:RDF>
  </metadata>
  <defs
     id="defs14" />
  <sodipodi:namedview
     pagecolor="#ffffff"
     bordercolor="#666666"
     borderopacity="1"
     objecttolerance="10"
     gridtolerance="10"
     guidetolerance="10"
     inkscape:pageopacity="0"
     inkscape:pageshadow="2"
     inkscape:window-width="1680"
     inkscape:window-height="1026"
     id="namedview12"
     showgrid="true"
     inkscape:zoom="3.6875"
     inkscape:cx="-42.057563"
     inkscape:cy="-18.169159"
     inkscape:window-x="0"
     inkscape:window-y="24"
     inkscape:window-maximized="1"
     inkscape:current-layer="svg2">
    <inkscape:grid
       type="xygrid"
       id="grid4144" />
  </sodipodi:namedview>
  <path
     style="fill:#555555"
     inkscape:connector-curvature="0"
     id="path6"
     d="m 56,27.153848 0,9.692306 C 56,37.485208 55.316568,38 54.491124,38 l -8.982248,0 C 44.674556,38 44,37.485208 44,36.846154 l 0,-9.692306 C 44,26.52367 44.674556,26 45.508876,26 l 8.982248,0 C 55.316568,26 56,26.52367 56,27.153848 Z" />
  <path
     style="fill:#555555"
     inkscape:connector-curvature="0"
     id="path8"
     d="m 38,27.153848 0,9.692306 C 38,37.485208 37.325444,38 36.491126,38 l -8.98225,0 C 26.674556,38 26,37.485208 26,36.846154 l 0,-9.692306 C 26,26.52367 26.674556,26 27.508876,26 l 8.98225,0 C 37.325444,26 38,26.52367 38,27.153848 Z" />
  <path
     style="fill:#555555"
     inkscape:connector-curvature="0"
     id="path10"
     d="m 20,27.153848 0,9.692306 C 20,37.485208 19.316566,38 18.491124,38 L 9.5088748,38 C 8.6745562,38 8,37.485208 8,36.846154 L 8,27.153848 C 8,26.52367 8.6745562,26 9.5088748,26 l 8.9822492,0 C 19.316566,26 20,26.52367 20,27.153848 Z" />
</svg>

<svg xmlns="http://www.w3.org/2000/svg" viewBox="0 0 64 64">
 <path d="m 56 27.15 0 9.692 c 0 0.639 -0.683 1.154 -1.509 1.154 l -8.982 0 c -0.834 0 -1.509 -0.515 -1.509 -1.154 l 0 -9.692 c 0 -0.63 0.675 -1.154 1.509 -1.154 l 8.982 0 c 0.825 0 1.509 0.524 1.509 1.154" style="fill:#555"/>
 <path d="m 38 27.15 0 9.692 c 0 0.639 -0.675 1.154 -1.509 1.154 l -8.982 0 c -0.834 0 -1.509 -0.515 -1.509 -1.154 l 0 -9.692 c 0 -0.63 0.675 -1.154 1.509 -1.154 l 8.982 0 c 0.834 0 1.509 0.524 1.509 1.154" style="fill:#555"/>
 <path d="m 20 27.15 0 9.692 c 0 0.639 -0.683 1.154 -1.509 1.154 l -8.982 0 c -0.834 0 -1.509 -0.515 -1.509 -1.154 l 0 -9.692 c 0 -0.63 0.675 -1.154 1.509 -1.154 l 8.982 0 c 0.825 0 1.509 0.524 1.509 1.154" style="fill:#555"/>
</svg>
